X:253
T:Maureen's Jig 
C:Joe Buchanan's Scottish Tome - Page 304.3
I:304 3
R:Jig
Z:Carl Allison
L:1/8
M:6/8
K:C
"D7" D | "G" B,DD DB,D     | "G" DEG "Em" GAB | "Am" cdc "D7" B2  A | "C"  BGG"D7" E2   D    |
"G" B,DD DB,D     | "G" DEG "Em" GAB | "Am" cdc "D7" B2  A | "C"  BGG     "G"  G2  :|
"D7" B | "G" _B2  =B   dBB | "G" eBB "Em" dBG | "Am" ABA "D7" AGA   | "Am" Bee     "D7" dBA  |
"G" _B2  =B   dBB | "G" eBB "Em" dBG | "Am" Bdc "D7" B2  A | "C"  BGG     "G"  G2  :|

